svgs/sharp-solid/hand-point-left.svg

<svg xmlns="http://www.w3.org/2000/svg" viewBox="0 0 512 512"><!--! Font Awesome Pro 6.3.0 by @fontawesome - https://fontawesome.com License - https://fontawesome.com/license (Commercial License) Copyright 2023 Fonticons, Inc. --><path d="M0 96l0 64 240 0 0-64L0 96zM160 288l0 64 128 0 0-64-128 0zm-32-32l112 0 0-64-112 0 0 64zm64 128l0 64 128 0 0-64-128 0zM363 64l-91 0 0 192 48 0 32 0 0-96 0-16 32 0 0 16 0 112 0 16-16 0-48 0 0 64 32 0 0 96c88.4 0 160-71.6 160-160l0-61.7c0-42.4-16.9-83.1-46.9-113.1l-11.6-11.6C429.5 77.5 396.9 64 363 64z"/></svg>

<svg xmlns="http://www.w3.org/2000/svg" viewBox="0 0 512 512"><!--! Font Awesome Pro 6.2.0 by @fontawesome - https://fontawesome.com License - https://fontawesome.com/license (Commercial License) Copyright 2022 Fonticons, Inc. --><path d="M0 96l0 64 240 0V96L0 96zM160 288v64H288V288H160zm-32-32H240V192H128v64zm64 128l0 64H320V384H192zM363 64H272l0 192h48l32 0 0-96V144h32v16l0 112v16H368l-48 0v64l32 0v96c88.4 0 160-71.6 160-160V226.3c0-42.4-16.9-83.1-46.9-113.1l-11.6-11.6C429.5 77.5 396.9 64 363 64z"/></svg>
